!!!OTL: 751. Christliches Verlangen nach dem Erloeser.
!!!COM: Volksweise
!!!ARE: Europa, Mitteleuropa, Deutschland
!!!SCT: B0751
!!!TXL: @@DE
!!!YEM: Copyright 1995, estate of Helmut Schaffrath.
**kern	**text
*ICvox	*
*Ivox	*
*clefG2	*
*M3/4	*
*k[b-]	*
*F:	*
!LO:TX:a:t=Feierlich langſam.	!
{8f	Wenn
8g	ich
=1	=1
2a	ihn
4b-	nur
=2	=2
4a	ha-
4g}	-be,
{8g	wenn
8a	er
=3	=3
2b-	mein
4cc	nur
=4	=4
4a	iſt,
4r}	.
{8a	wenn
8bn	mein
=5	=5
4.cc	Herʒ
8cc	bis
8dd	hin
8dd	ʒum
=6	=6
4.ee	Gra-
8dd}	-be
{8cc	ſei-
8bn/	-ne
=7	=7
8a	Treu-
8dd	-e
4cc	nie
4bn	ver-
=8	=8
2cc	-gißt,
4r}	.
=9	=9
{8g	weiß
8a	ich
4b-X	nichts
4cc	von
=10	=10
4b-	Lei-
4a	-de,
4r}	.
=11	=11
{8dd	füh-
8cc	-le
4b-	nichts
4a	als
=12	=12
4a	An-
4g}	-dacht,
{8f	Lieb'
8b-	und
=13	=13
(2a	Freu-
4g)	.
=14	=14
4f	-de.
4r}	.
==	==
!!!AGN: religioes
!!!GTL: Religioese Lieder
!!!ONB: ESAC (Essen Associative Code) Database: BOEHME
!!!AMT: simple triple
!!!AIN: vox
!!!EED: Helmut Schaffrath
!!!EEV: 1.0
!!@@COMMENT:"Gedichtet von Friedrich v. Hardenberg, genannt Novalis, im Jahre 1800. Zuerst gedruckt
!!im 2. Bd. seiner Werke. Berlin 1802. Zwei Strophen sind hier fortgeblieben."
!!@@END:
!!!Text: F. von Hardenberg
!!!URL-scan: https://archive.org/details/BoehmeVtLieder1895/page/n603/mode/2up
!!!ENC: Anna Maria Matuszewska
!!!EEV: 2024/19/07
*-	*-
